assets/images/ico_copy.svg

<svg width="15" height="16" viewBox="0 0 15 16" fill="none" xmlns="http://www.w3.org/2000/svg">
<path d="M2.45989 15.7131H10.7522C11.1392 15.7131 11.5104 15.557 11.7842 15.28C12.0579 15.003 12.2118 14.6275 12.2125 14.2359V13.0357H12.5412C12.9279 13.0353 13.299 12.8796 13.5724 12.603C13.8458 12.3264 13.9996 11.9512 14 11.5596V4.0598H13.997C13.9982 3.97356 13.965 3.89031 13.9056 3.82909L10.4984 0.380726C10.4375 0.320248 10.3553 0.287023 10.2704 0.288143V0.285156H5.15874C4.7721 0.285903 4.40131 0.441204 4.12793 0.718208C3.85454 0.994838 3.7007 1.37003 3.70033 1.76126V2.09427H2.45989C2.07287 2.09427 1.70172 2.25031 1.42797 2.52732C1.15422 2.80432 1.00037 3.17988 1 3.57187V14.2362C1.00037 14.6279 1.15422 15.0034 1.42797 15.2804C1.70172 15.5574 2.07287 15.7127 2.45989 15.7131ZM10.5928 1.40026L12.898 3.73277H10.8363C10.7013 3.73277 10.5917 3.62152 10.5914 3.48488L10.5928 1.40026ZM4.34597 1.76126C4.34597 1.54325 4.43193 1.33419 4.58431 1.17963C4.73668 1.02545 4.94328 0.938467 5.15874 0.938467H9.9472V3.48638C9.94794 3.72493 10.0417 3.9534 10.2084 4.12177C10.3752 4.29051 10.601 4.38533 10.8363 4.38608H13.3544V11.5596C13.3544 11.7776 13.2684 11.987 13.116 12.1412C12.9637 12.2954 12.757 12.3824 12.5412 12.3824H5.15911C4.94365 12.382 4.73705 12.295 4.58468 12.1408C4.4323 11.9866 4.34671 11.7776 4.34634 11.5596L4.34597 1.76126ZM1.64601 3.57187C1.64601 3.35348 1.73198 3.14404 1.88472 2.98949C2.03746 2.83493 2.24443 2.74795 2.46026 2.74758H3.7007V11.5584C3.70107 11.9497 3.85491 12.3249 4.1283 12.6019C4.40168 12.8785 4.77247 13.0342 5.15911 13.0349H11.5672V14.2351C11.5672 14.4539 11.4816 14.6633 11.3289 14.8182C11.1761 14.9732 10.9692 15.0602 10.753 15.0602H2.46026C2.24443 15.0602 2.03746 14.9728 1.88472 14.8186C1.73198 14.6641 1.64638 14.4546 1.64601 14.2366V3.57187Z" fill="white" stroke="white" stroke-width="0.5"/>
</svg>

<svg xmlns="http://www.w3.org/2000/svg" width="15" height="16" fill="none"><path fill="#fff" stroke="#fff" stroke-width=".5" d="M2.46 15.713h8.292c.387 0 .758-.156 1.032-.433a1.49 1.49 0 0 0 .428-1.044v-1.2h.33c.386 0 .757-.156 1.03-.433.274-.277.428-.652.428-1.043v-7.5h-.003a.325.325 0 0 0-.091-.23L10.498.38a.318.318 0 0 0-.228-.092V.285H5.16c-.387 0-.758.156-1.031.433A1.486 1.486 0 0 0 3.7 1.761v.333H2.46c-.387 0-.758.156-1.032.433A1.488 1.488 0 0 0 1 3.572v10.664c0 .392.154.767.428 1.044s.645.433 1.032.433ZM10.593 1.4l2.305 2.333h-2.062a.247.247 0 0 1-.245-.248l.002-2.085Zm-6.247.361c0-.218.086-.427.238-.581A.808.808 0 0 1 5.16.938h4.788v2.548c0 .239.095.467.261.636a.887.887 0 0 0 .628.264h2.518v7.174a.828.828 0 0 1-.238.581.808.808 0 0 1-.575.241H5.16a.81.81 0 0 1-.574-.241.829.829 0 0 1-.239-.581V1.76Zm-2.7 1.81c0-.218.086-.427.239-.582a.811.811 0 0 1 .575-.241H3.7v8.81c.001.392.155.767.428 1.044.274.277.644.432 1.031.433h6.408v1.2a.83.83 0 0 1-.238.583.808.808 0 0 1-.576.242H2.46a.81.81 0 0 1-.575-.241.83.83 0 0 1-.239-.582V3.572Z"/></svg>
